X: 24827
T: Maggie Pickins
R: strathspey
M: 4/4
K: Gmajor
|:B<A|G>ED>E G>A B2|d>B (3ABG A>GE>A|G>ED>E G>AB>e|d>B (3ABA G2:|
|:G>d|(3egd ed g2 fe|dBAG AG E2|1 (3egd ed g3 e|
dB (3ABG A2:|2 G>ED>E G>AB>e|d>B (3ABA G2||

